X:1
T:The Academy
R:Jig
C:J. Rule
S:Kerr's Merry Melodies, volume 1
S:Steve Wyrick <sjwyrick:ca.astound.net> 2004-2-4
M:6/8
L:1/8
K:G
E |\
"G"D2G GAB | "Am"c2A "D7"d2c | "Bm/F#"B2g dcB | "Am/C"A2E "D"GFE |
"G"D2G GAB | "D7/A"c2A "D7"d2c | "G"Bgf "C6"edc | "D7"BcA "G"G2 ||
B |\
"G"d2B gfe | d2g B2d | "D7"c2a "G"B2g | "D7"A2d cBc |
"G"d2B "C"gfe | "G/B"d2g B2d | "C6"c2A "D7"fef | "G"g3 g2z |]
